vv/building.svg

<svg xmlns="http://www.w3.org/2000/svg" viewBox="0 0 48 48" height="1em" width="1em">
  <path d="M41 42H8V7h17v10.99h16V42Z" style="fill-rule:evenodd;fill:#ff6e6e;stroke:#fff;stroke-linecap:round;stroke-width:0"/>
  <path d="M35.012 39v-2.99h3V39h-3Zm0-8.01h3v3.018h-3V30.99Zm0-4.992h3v2.989h-3V26Zm0-4.993h3V24h-3v-2.99Zm-5 15.005h3V39h-3v-2.99Zm0-5.021h3v3.018h-3V30.99Zm0-4.992h3v2.989h-3V26Zm0-4.993h3V24h-3v-2.99ZM25 18h2v24h-2V18ZM11.994 37h9.012v2.015h-9.012V37Zm0-5h9.012v2.015h-9.012v-2.021Zm0-5h9.012v2.015h-9.012v-2.023Zm0-5h9.012v2.015h-9.012v-2.024Zm0-5h9.012v2h-9.012v-2.011Zm0-5h9.012v2h-9.012v-2.013Z" style="fill:#0c0058;fill-rule:evenodd"/>
</svg>

<svg xmlns="http://www.w3.org/2000/svg" viewBox="0 0 48 48" height="1em" width="1em">
  <path d="M41,42H8V7H25V17.99H41V42Z" style="fill-rule:evenodd;fill:#FF6E6E;stroke:#fff;stroke-linecap:round;stroke-width:0"/>
  <path d="M35.012,39V36.01h3V39h-3Zm0-8.01h3v3.018h-3V30.99Zm0-4.992h3v2.989h-3V26Zm0-4.993h3V24h-3v-2.99Zm-5,15.005h3V39h-3V36.01Zm0-5.021h3v3.018h-3V30.99Zm0-4.992h3v2.989h-3V26Zm0-4.993h3V24h-3v-2.99ZM25,18h2V42H25V18ZM11.994,37h9.012v2.015H11.994V37Zm0-5h9.012v2.015H11.994V31.994Zm0-5h9.012v2.015H11.994V26.992Zm0-5h9.012v2.015H11.994V21.991Zm0-5h9.012V19H11.994V16.989Zm0-5h9.012V14H11.994V11.987Z" style="fill:#0C0058;fill-rule:evenodd"/>
</svg>
